images/svg/LR.svg

<svg width="90" height="87" viewBox="0 0 90 87" fill="none" xmlns="http://www.w3.org/2000/svg">
<g clip-path="url(#clip0_254_468)">
<path d="M4.20599 3.71875H86.002V83.284H4.20599V3.71875Z" fill="url(#paint0_radial_254_468)"/>
<path d="M4.20595 3.71914H86.002V83.2844H4.20595V3.71914ZM0.486816 87H89.7176V0H0.486816V87ZM52.7225 36.6203C52.7225 36.1742 52.7225 35.0962 52.5369 33.0154C52.5369 32.7191 52.6119 32.6442 52.8331 32.5335C55.0996 31.6055 60.4927 29.9673 66.514 29.9673C66.8103 29.9673 66.9602 30.0422 66.9602 30.3385V35.6923C66.9602 35.9886 66.8495 36.0635 66.514 36.0635C64.1726 35.9529 60.714 36.2491 59.4112 36.8059V60.2665C59.4112 60.5627 59.3006 60.7126 58.9651 60.7126H53.133C52.8367 60.7126 52.6868 60.602 52.6868 60.2665V36.6203H52.7225ZM25.2109 60.7126C24.7647 60.7126 24.6541 60.527 24.6541 60.1558V20.1876C24.6541 19.8913 24.7647 19.7057 25.1002 19.7057H30.9752C31.2714 19.7057 31.3464 19.8164 31.3464 20.1519V54.5807H46.6655C46.9618 54.5807 47.076 54.6913 47.001 55.0268L46.073 60.3057C45.9981 60.602 45.8125 60.7519 45.5162 60.7519H25.2109V60.7126Z" fill="#AAD1EB"/>
</g>
<defs>
<radialGradient id="paint0_radial_254_468" cx="0" cy="0" r="1" gradientUnits="userSpaceOnUse" gradientTransform="translate(31.1463 21.551) scale(62.1642 60.1863)">
<stop stop-color="#39464D" stop-opacity="0.98"/>
<stop offset="1" stop-color="#05151F"/>
</radialGradient>
<clipPath id="clip0_254_468">
<rect width="89.2308" height="87" fill="white" transform="translate(0.486816)"/>
</clipPath>
</defs>
</svg>

<svg xmlns="http://www.w3.org/2000/svg" width="90" height="87" fill="none"><g clip-path="url(#a)"><path fill="url(#b)" d="M4.206 3.719h81.796v79.565H4.206V3.719Z"/><path fill="#AAD1EB" d="M4.206 3.72h81.796v79.564H4.206V3.72ZM.486 87h89.232V0H.487v87Zm52.236-50.38c0-.446 0-1.524-.185-3.605 0-.296.075-.37.296-.482 2.267-.928 7.66-2.566 13.681-2.566.296 0 .446.075.446.372v5.353c0 .297-.11.371-.446.371-2.341-.11-5.8.186-7.103.743v23.46c0 .297-.11.447-.446.447h-5.832c-.296 0-.446-.111-.446-.447V36.62h.035ZM25.211 60.713c-.446 0-.557-.186-.557-.557V20.188c0-.297.11-.482.446-.482h5.875c.296 0 .371.11.371.446V54.58h15.32c.296 0 .41.11.335.446l-.928 5.279c-.075.296-.26.446-.557.446H25.211v-.04Z"/></g><defs><radialGradient id="b" cx="0" cy="0" r="1" gradientTransform="matrix(62.1642 0 0 60.1863 31.146 21.551)" gradientUnits="userSpaceOnUse"><stop stop-color="#39464D" stop-opacity=".98"/><stop offset="1" stop-color="#05151F"/></radialGradient><clipPath id="a"><path fill="#fff" d="M.487 0h89.23v87H.488z"/></clipPath></defs></svg>
